assets/Eyes/Flat/eyes_flat.svg

<svg width="32" height="32" viewBox="0 0 32 32" fill="none" xmlns="http://www.w3.org/2000/svg">
<path d="M9.52777 7C4.83335 7 1.02777 10.8056 1.02777 15.5V22.5C1.02777 27.1944 4.83335 31 9.52777 31C12.1363 31 14.4695 29.8246 16.0278 27.9773C17.5861 29.8246 19.9193 31 22.5278 31C27.2222 31 31.0278 27.1944 31.0278 22.5V15.5C31.0278 10.8056 27.2222 7 22.5278 7C19.9193 7 17.5861 8.17537 16.0278 10.0227C14.4695 8.17537 12.1363 7 9.52777 7Z" fill="#9B9B9B"/>
<path d="M9.52777 8C5.38564 8 2.02777 11.3579 2.02777 15.5V22.5C2.02777 26.6421 5.38564 30 9.52777 30C12.3062 30 14.7318 28.4891 16.0278 26.2442C17.3237 28.4891 19.7493 30 22.5278 30C26.6699 30 30.0278 26.6421 30.0278 22.5V15.5C30.0278 11.3579 26.6699 8 22.5278 8C19.7493 8 17.3237 9.51086 16.0278 11.7558C14.7318 9.51086 12.3062 8 9.52777 8Z" fill="white"/>
<path d="M15.0278 15.5C15.0278 14.1363 15.3917 12.8577 16.0278 11.7558C15.1755 10.2794 13.8345 9.12044 12.226 8.5H12.059C13.1528 9.15625 13.9965 11.75 13.9965 13V25.125C13.9965 26.4997 13.8403 28.2181 12.06 29.5618C13.7422 28.9585 15.1463 27.7711 16.0278 26.2442C15.3917 25.1423 15.0278 23.8637 15.0278 22.5V15.5Z" fill="#D3D3D3"/>
<path d="M30.0278 15.5C30.0278 12.309 28.035 9.58346 25.226 8.5H25.059C26.7153 9.59375 27.9653 11.5625 27.9653 13.0312V25C27.9653 26.3747 26.8407 28.2181 25.06 29.5618C27.9561 28.5231 30.0278 25.7535 30.0278 22.5V15.5Z" fill="#D3D3D3"/>
<path d="M6.59027 13C4.65727 13 3.09027 14.567 3.09027 16.5V21.5C3.09027 23.433 4.65727 25 6.59027 25C8.52327 25 10.0903 23.433 10.0903 21.5V16.5C10.0903 14.567 8.52327 13 6.59027 13Z" fill="#321B41"/>
<path d="M19.5278 13C17.5948 13 16.0278 14.567 16.0278 16.5V21.5C16.0278 23.433 17.5948 25 19.5278 25C21.4608 25 23.0278 23.433 23.0278 21.5V16.5C23.0278 14.567 21.4608 13 19.5278 13Z" fill="#321B41"/>
<path d="M8.76628 16.861C9.13773 16.5518 9.12055 15.9188 8.7279 15.4471C8.33525 14.9754 7.71583 14.8437 7.34438 15.1528C6.97294 15.462 6.99012 16.0951 7.38277 16.5668C7.77541 17.0385 8.39483 17.1702 8.76628 16.861Z" fill="#F4F4F4"/>
<path d="M21.7629 16.861C22.1343 16.5518 22.1171 15.9188 21.7245 15.4471C21.3318 14.9754 20.7124 14.8437 20.341 15.1528C19.9695 15.462 19.9867 16.0951 20.3793 16.5668C20.772 17.0385 21.3914 17.1702 21.7629 16.861Z" fill="#F4F4F4"/>
</svg>

<svg xmlns="http://www.w3.org/2000/svg" width="32" height="32" fill="none"><path fill="#9B9B9B" d="M9.528 7a8.5 8.5 0 0 0-8.5 8.5v7a8.5 8.5 0 0 0 15 5.477 8.5 8.5 0 0 0 15-5.477v-7a8.5 8.5 0 0 0-15-5.477A8.482 8.482 0 0 0 9.528 7Z"/><path fill="#fff" d="M9.528 8a7.5 7.5 0 0 0-7.5 7.5v7a7.5 7.5 0 0 0 14 3.744 7.5 7.5 0 0 0 14-3.744v-7a7.5 7.5 0 0 0-14-3.744A7.497 7.497 0 0 0 9.528 8Z"/><path fill="#D3D3D3" d="M15.028 15.5c0-1.364.364-2.642 1-3.744A7.527 7.527 0 0 0 12.226 8.5h-.167c1.094.656 1.938 3.25 1.938 4.5v12.125c0 1.375-.157 3.093-1.937 4.437a7.525 7.525 0 0 0 3.968-3.318 7.465 7.465 0 0 1-1-3.744v-7ZM30.028 15.5a7.503 7.503 0 0 0-4.802-7h-.167c1.656 1.094 2.906 3.063 2.906 4.531V25c0 1.375-1.124 3.218-2.905 4.562a7.503 7.503 0 0 0 4.968-7.062v-7Z"/><path fill="#321B41" d="M6.59 13a3.5 3.5 0 0 0-3.5 3.5v5a3.5 3.5 0 1 0 7 0v-5a3.5 3.5 0 0 0-3.5-3.5ZM19.528 13a3.5 3.5 0 0 0-3.5 3.5v5a3.5 3.5 0 1 0 7 0v-5a3.5 3.5 0 0 0-3.5-3.5Z"/><path fill="#F4F4F4" d="M8.766 16.861c.372-.31.355-.942-.038-1.414-.393-.472-1.012-.603-1.384-.294-.371.309-.354.942.039 1.414.392.471 1.012.603 1.383.294ZM21.763 16.861c.371-.31.354-.942-.039-1.414-.392-.472-1.012-.603-1.383-.294-.372.309-.354.942.038 1.414.393.471 1.012.603 1.384.294Z"/></svg>
